src/assets/icons/multicolor/burger.multicolor.svg

<svg width="40" height="40" fill="none">
  <path fill="#093971" d="M27.5 20h-15c-.3454 0-.625.2796-.625.625s.2796.625.625.625h15c.3455 0 .625-.2796.625-.625S27.8455 20 27.5 20zM27.5 25.625h-15c-.3454 0-.625.2796-.625.625s.2796.625.625.625h15c.3455 0 .625-.2796.625-.625s-.2795-.625-.625-.625zM27.5 14.375h-15c-.3454 0-.625.2796-.625.625s.2796.625.625.625h15c.3455 0 .625-.2796.625-.625s-.2795-.625-.625-.625z"/>
  <path fill="#093971" d="M20 0C8.95437 0 0 8.95425 0 20c0 11.0457 8.95437 20 20 20 11.0457 0 20-8.9543 20-20C40 8.95425 31.0457 0 20 0zm0 38.75C9.66125 38.75 1.25 30.3388 1.25 20 1.25 9.66119 9.66125 1.25 20 1.25c10.3388 0 18.75 8.41119 18.75 18.75 0 10.3388-8.4112 18.75-18.75 18.75z"/>
</svg>

<svg width="40" height="40" viewBox="0 0 40 40" fill="none" xmlns="http://www.w3.org/2000/svg">
<path d="M27.5 20H12.5C12.1546 20 11.875 20.2796 11.875 20.625C11.875 20.9704 12.1546 21.25 12.5 21.25H27.5C27.8455 21.25 28.125 20.9704 28.125 20.625C28.125 20.2796 27.8455 20 27.5 20Z" fill="#093971"/>
<path d="M27.5 25.625H12.5C12.1546 25.625 11.875 25.9046 11.875 26.25C11.875 26.5954 12.1546 26.875 12.5 26.875H27.5C27.8455 26.875 28.125 26.5954 28.125 26.25C28.125 25.9046 27.8455 25.625 27.5 25.625Z" fill="#093971"/>
<path d="M27.5 14.375H12.5C12.1546 14.375 11.875 14.6546 11.875 15C11.875 15.3454 12.1546 15.625 12.5 15.625H27.5C27.8455 15.625 28.125 15.3454 28.125 15C28.125 14.6546 27.8455 14.375 27.5 14.375Z" fill="#093971"/>
<path d="M20 0C8.95437 0 0 8.95425 0 20C0 31.0457 8.95437 40 20 40C31.0457 40 40 31.0457 40 20C40 8.95425 31.0457 0 20 0ZM20 38.75C9.66125 38.75 1.25 30.3388 1.25 20C1.25 9.66119 9.66125 1.25 20 1.25C30.3388 1.25 38.75 9.66119 38.75 20C38.75 30.3388 30.3388 38.75 20 38.75Z" fill="#093971"/>
</svg>
